X:23
T:(Psalm)  9
M:2/2
L:1/4
S:Armitt MS
K:B_ major
G2GA|B2c2|(d>cB)(c/2B/2)|A3F|G>F G/2A/2 B|cBA2|G2||B2|ddcd|(c>AG)G|A3z|z
2zA|BBGG|A3(B/2c/2)|ddBB|c3d|(edcd|GAB)d|(cB)A2|G4||
